X:1025
T:Molly Maguire
R:reel
C:Miss Magdalene Stirling (1765-1846), Scotland
S:Anna Lindblad
H:The title of the original tune is "The Perthshire Hunt"
H:See also "The Boyne Hunt" #32
O:Cape Breton, Canada
Z:id:hn-reel-1025
M:C|
L:1/8
K:E
B2GB EBGB | EBGB AGAc | B2GB EBGB | Bcef gfec :|
Bege bege | Bege afge | Bege bege | Bcef gfec |
Bege bege | Bege f3a | g2fg efce | Bcef gfec ||

